dist/images/ico-point.svg

<svg xmlns="http://www.w3.org/2000/svg" xmlns:xlink="http://www.w3.org/1999/xlink" preserveAspectRatio="none" width="35" height="50" viewBox="0 0 35 50"><defs><path fill="#d19e45" d="M234 171.6q1.05 2.35 2.65 4.45l19.6 32.9.25.95 20.45-34.25q1.3-1.8 2.2-3.75 2.2-4.65 2.2-10.25 0-10.15-7.25-17.25-7.25-7.15-17.45-7.15-10.25 0-17.5 7.15-7.2 7.1-7.2 17.25 0 5.4 2.05 9.95m23 5.2q-6.1 0-10.45-4.3-4.25-4.3-4.25-10.4 0-6.15 4.25-10.45 4.35-4.3 10.45-4.3 6.15 0 10.4 4.3 4.35 4.3 4.35 10.45 0 6.1-4.35 10.4-4.25 4.3-10.4 4.3z" id="a"/><path fill="#d19e45" d="M24.45 13.9h-3.1v2.25h3.1V13.9z" id="b"/><path fill="#d19e45" d="M32.5 24.15q1.5-3.1 1.5-6.85 0-6.75-4.85-11.5Q24.3 1 17.5 1 10.65 1 5.8 5.8 1 10.55 1 17.3q0 3.6 1.35 6.65.7 1.6 1.75 3L17.2 48.9l13.85-22.25q.85-1.2 1.45-2.5m-5.9-8.75h-2.15v-1.5h-5.4v10.8h2v1.85H14.4V24.7h1.9V13.9h-5.15v1.5h-2.2v-4.25H26.6v4.25z" id="c"/></defs><use xlink:href="#a"/><use xlink:href="#b"/><use xlink:href="#c"/></svg>

<svg xmlns="http://www.w3.org/2000/svg" version="1.1" xmlns:xlink="http://www.w3.org/1999/xlink" preserveAspectRatio="none" x="0px" y="0px" width="35px" height="50px" viewBox="0 0 35 50">
<defs>
<g id="Layer4_0_FILL">
<path fill="#d19e45" stroke="none" d="
M 234 171.6
Q 235.05 173.95 236.65 176.05
L 256.25 208.95 256.5 209.9 276.95 175.65
Q 278.25 173.85 279.15 171.9 281.35 167.25 281.35 161.65 281.35 151.5 274.1 144.4 266.85 137.25 256.65 137.25 246.4 137.25 239.15 144.4 231.95 151.5 231.95 161.65 231.95 167.05 234 171.6
M 257 176.8
Q 250.9 176.8 246.55 172.5 242.3 168.2 242.3 162.1 242.3 155.95 246.55 151.65 250.9 147.35 257 147.35 263.15 147.35 267.4 151.65 271.75 155.95 271.75 162.1 271.75 168.2 267.4 172.5 263.15 176.8 257 176.8 Z"/>
</g>

<g id="Layer3_0_FILL">
<path fill="#d19e45" stroke="none" d="
M 24.45 13.9
L 21.35 13.9 21.35 16.15 24.45 16.15 24.45 13.9 Z"/>
</g>

<g id="Layer2_0_FILL">
<path fill="#d19e45" stroke="none" d="
M 32.5 24.15
Q 34 21.05 34 17.3 34 10.55 29.15 5.8 24.3 1 17.5 1 10.65 1 5.8 5.8 1 10.55 1 17.3 1 20.9 2.35 23.95 3.05 25.55 4.1 26.95
L 17.2 48.9 31.05 26.65
Q 31.9 25.45 32.5 24.15
M 26.6 15.4
L 24.45 15.4 24.45 13.9 19.05 13.9 19.05 24.7 21.05 24.7 21.05 26.55 14.4 26.55 14.4 24.7 16.3 24.7 16.3 13.9 11.15 13.9 11.15 15.4 8.95 15.4 8.95 11.15 26.6 11.15 26.6 15.4 Z"/>
</g>
</defs>

<g transform="matrix( 1, 0, 0, 1, 0,0) ">
<use xlink:href="#Layer4_0_FILL"/>
</g>

<g transform="matrix( 1, 0, 0, 1, 0,0) ">
<use xlink:href="#Layer3_0_FILL"/>
</g>

<g transform="matrix( 1, 0, 0, 1, 0,0) ">
<use xlink:href="#Layer2_0_FILL"/>
</g>
</svg>
